images/icons/Icontv.svg

<svg width="52" height="43" viewBox="0 0 52 43" fill="none" xmlns="http://www.w3.org/2000/svg">
<path fill-rule="evenodd" clip-rule="evenodd" d="M26 0.374268L44.184 0.8884C47.3971 0.979246 50.0546 3.41838 50.42 6.61188C51.2288 13.6809 51.2288 20.8191 50.42 27.8882C50.0546 31.0817 47.3971 33.5208 44.184 33.6116L29.125 34.0374V39.125H38.5C39.5355 39.125 40.375 39.9645 40.375 41C40.375 42.0356 39.5355 42.875 38.5 42.875H13.5C12.4645 42.875 11.625 42.0356 11.625 41C11.625 39.9645 12.4645 39.125 13.5 39.125H22.875V34.0374L7.81589 33.6116C4.60284 33.5208 1.9453 31.0817 1.57991 27.8882C0.771093 20.8191 0.771094 13.6809 1.57991 6.61188C1.9453 3.41838 4.60284 0.979246 7.81589 0.888401L26 0.374268ZM8.5 25.375C7.46447 25.375 6.625 26.2145 6.625 27.25C6.625 28.2856 7.46447 29.125 8.5 29.125H43.5C44.5355 29.125 45.375 28.2856 45.375 27.25C45.375 26.2145 44.5355 25.375 43.5 25.375H8.5Z" fill="#299764"/>
</svg>

<svg width="52" height="43" fill="none" xmlns="http://www.w3.org/2000/svg"><path fill-rule="evenodd" clip-rule="evenodd" d="m26 .374 18.184.514a6.46 6.46 0 0 1 6.236 5.724 93.586 93.586 0 0 1 0 21.276 6.46 6.46 0 0 1-6.236 5.724l-15.059.425v5.088H38.5a1.875 1.875 0 0 1 0 3.75h-25a1.875 1.875 0 1 1 0-3.75h9.375v-5.088l-15.06-.425a6.46 6.46 0 0 1-6.235-5.724 93.584 93.584 0 0 1 0-21.276A6.46 6.46 0 0 1 7.816.888L26 .374ZM8.5 25.375a1.875 1.875 0 0 0 0 3.75h35a1.875 1.875 0 1 0 0-3.75h-35Z" fill="#299764"/></svg>
